X: 218a
T: Blackwater #1
S: "Where's the Crack v/1" (DJ Taylor)
L: 1/8
M: 2/4
R: polka
K:G
"G"D>E GA | Bd B2 | "D"AG/A/ BA |"C" AG EG|
"G"D>E GA | Bd B2 |"D" AG/A/ BA |1"G" G2 GE :|2 "G"GA Bd ||
"C(G)"g2 e2 |"G" dB d2 | G>A BA |"C"AG EG |
"G"D>E GA | Bd B2 | "D"AG/A/ BA |1"G" GA Bd :|2"G" G2 GE||


